X:1
T:Au Fort de Ma Détresse, 76.76 D
T:Genevan Psalter, 1542
T:Au Fort de Ma Détresse, 76.76 D
T:Public Domain
C:Genevan Psalter, 1542
Z:Public Domain
%%score ( 1 2 ) ( 3 4 )
L:1/8
M:4/4
K:G
V:1 treble 
V:2 treble 
V:3 bass 
V:4 bass 
V:1
 [EB]4 | E2 [^DF]2 [EG]2 [=DF]2 | (D2 C2) [B,D]4 | [DG]4 [DE]2 [CF]2 | [B,G]4 [EA]4 | %5
 [^DB]4 [=DB]4 | [DA]2 [DB]2 [F^c]2 [Fd]2 | [F^c]4 [DB]4 | [Ee]4 [Fd]2 [GB]2 | [Fd]4 [F^c]4 x4 | %10
 [DB]4 [EB]4 | [Dd]2 [DB]2 [FA]2 [EG]2 | (E2 D2) [CE]4 | [EA]4 [DG]2 [DF]2 | [DE]4 [^CE]4 | %15
 D4 [DG]4 | [EG]2 [FA]2 [GB]2 [Gc]2 | [FA]4 G4 | [EB]4 [EA]2 [EG]2 | (F2 z2) z2 ^D2 x4 | E8 |] %21
V:2
 x4 | E2 x6 | E4 x4 | x8 | x8 | x8 | x8 | x8 | x8 | x12 | x8 | x8 | F4 x4 | x8 | x8 | D4 x4 | x8 | %17
 x4 G4 | x8 | A4 (E4 F4) | E8 |] %21
V:3
 [E,G,]4 | [G,B,]2 [F,A,]2 [E,G,]2 [B,,B,]2 | [C,G,]4 [G,,G,]4 | [B,,G,]4 [C,G,]2 [A,,A,]2 | %4
 [E,B,]4 [C,A,]4 | [B,,F,]4 G,4 | [F,D]2 [G,B,]2 [F,A,]2 [B,,B,]2 | (B,2 ^A,2) [B,,B,]4 | %8
 (G,2 C2) [D,B,]2 [E,G,]2 | (A,2 z2) z2 ^A,2 x4 | [B,,B,]4 [E,G,]4 | %11
 [F,A,]2 [G,B,]2 [D,D]2 [E,B,]2 | [B,,B,]4 [C,G,]4 | [A,,C]4 [B,,B,]2 [D,A,]2 | [G,,B,]4 [A,,A,]4 | %15
 [D,F,]4 [B,,G,]4 | [C,G,]2 [A,,C]2 [A,,B,]2 [C,E]2 | (D2 C2) [E,B,]4 | [G,,B,]4 [A,,C]2 [E,B,]2 | %19
 [A,,C]4 [B,,B,]4 x4 | [E,,E,G,]8 |] %21
V:4
 x4 | x8 | x8 | x8 | x8 | x4 G,4 | x8 | F,4 x4 | C,4 x4 | D,4 B,4 F,4 | x8 | x8 | x8 | x8 | x8 | %15
 x8 | x8 | D,4 x4 | x8 | x12 | x8 |] %21

